X: 1
T: Lively Wagtail, The
M: 4/4
L: 1/8
R: reel
K: Dmaj
d2cA BF~F2|ABdf edfe|cdcA BdAd|BE~E2 DEFA|
BdcA BF~F2|ABdf edfe|dDFA BdAF|1GFEG Fddc:|2GFEG Fddf||
afdf eBdB|ABdf edBd|afdf ~e2dB|AFDF ~e3f|
afdf eBdB|ABdf edBc|dDFA BdAF|GFEG F2df|
afdf eBdB|ABdf edBd|afdf bafb|afdf ~e3f|
afdf eBdB|ABdf edBc|decd BdAF|GFEG Fddc|
